Solution/ChromeWorker/html/scenario/inspector/new/src/assets/icons/variables.svg

<svg xmlns="http://www.w3.org/2000/svg" width="16" height="16" fill="none" viewBox="0 0 16 16">
  <path fill="#606060" d="M.5 1.99951V13.9995h15V1.99951H.5Zm14 10.99999h-13V4.99951h13v7.99999Z" />
  <path fill="#606060" d="M5.41157 6.99973h-1.4116v1.33326h1.4116V6.99973Zm3.2942 0h-1.4116v1.33326h1.4116V6.99973Zm3.29423 0h-1.4116v1.33326H12V6.99973ZM5.41157 9.66647h-1.4116v1.33323h1.4116V9.66647Zm3.2942 0h-1.4116v1.33323h1.4116V9.66647Zm3.29423 0h-1.4116v1.33323H12V9.66647Z" />
</svg>

<svg xmlns="http://www.w3.org/2000/svg" width="16" height="16" fill="none" viewBox="0 0 16 16">
  <path fill="#606060" d="M0.5 1.99951V13.9995H15.5V1.99951H0.5ZM14.5 12.9995H1.5V4.99951H14.5V12.9995Z" />
  <path fill="#606060" d="M5.41157 6.99973H3.99997V8.33299H5.41157V6.99973ZM8.70577 6.99973H7.29417V8.33299H8.70577V6.99973ZM12 6.99973H10.5884V8.33299H12V6.99973ZM5.41157 9.66647H3.99997V10.9997H5.41157V9.66647ZM8.70577 9.66647H7.29417V10.9997H8.70577V9.66647ZM12 9.66647H10.5884V10.9997H12V9.66647Z" />
</svg>
